X: 15304
T: Girls Of Farranfore, The
R: reel
M: 4/4
K: Edorian
BE ~E2 GBdB|AD (F/E/D) FAed|BE ~E2 ~G3 B|dBAd BEED|
GBdg .e2 dB|AD (F/E/D) FAed|BE ~E2 ~G3 B|dBAd BE E2||
e3 e efge|~d3 f afed|(B/c/d) ef ~g3 e|dBAd BE E2|
e3 e efge|~d3 f agef|g2 bg faaf|edef gfed||

